X:1
T:I Hope to Meet You All in Glory
T:I Hope to Meet You All in Glory
T:William James Kirkpatrick
T:Emma Pitt, 1884
T:Public Domain Courtesy of the Cyber Hymnal™
C:William James Kirkpatrick
Z:Public Domain
Z:Courtesy of the Cyber Hymnal™
%%score ( 1 2 ) ( 3 4 )
L:1/8
Q:1/4=104
M:4/4
K:A
V:1 treble 
V:2 treble 
V:3 bass 
V:4 bass 
V:1
 [CE]2 | [CE]>[B,D] [A,C]>[B,D] [CE]2 [CA]2 | [Ec]4 [CA]2 E>E | [DF]2 [FA]2 [EG]2 [DF]2 | %4
w: 1.~I|hope to meet you all in|glo- ry, When the|storms of life are|
w: 2.~I|hope to meet you all in|glo- ry, By the|tree of life so|
w: 3.~I|hope to meet you all in|glo- ry, Round the|Sav- ior’s throne a-|
w: 4.~I|hope to meet you all in|glo- ry, When my|work on earth is|
 [CE]6 [CE]2 | [CE]>[B,D] [A,C]>[B,D] [CE]2 [CA]2 | [Ec]4 [CA]2 [EA]>[EA] | %7
w: o’er; I|hope to tell the dear old|sto- ry, On the|
w: fair; I|hope to praise our dear Re-|deem- er For the|
w: bove; I|hope to join the ran- somed|ar- my Sing- ing|
w: o’er; I|hope to clasp your hands re-|joic- ing On the|
 [FB]2 [Fd]2 [Ec]2 [DB]2 | [CA]6 ||"^Refrain" [EA]>[EA] | [EG]2 [EB]2 [EB]2 [EB]>[EB] | %11
w: bless- èd shin- ing|shore.|||
w: grace that brought me|there.|||
w: now re- deem- ing|love.|On the|shin- ing shore, On the|
w: bright e- ter- nal|shore.|||
 [EA]2 [Ac]2 [Ac]2 [Ac]>[Ac] | [GB]2 [Gd]2 [Gd]2 [Gc]>[GB] | [Ac]2 [Ae]2 !fermata![Ae]2 [Gd]2 | %14
w: |||
w: |||
w: gold- en strand, In our|Fa- ther’s home, In the|hap- py land: I|
w: |||
 [Ec]>[Ed] [Ee]>[Ed] [Ec]3 [EB] | [EA]>[EB] [Ec]>[EB] [EA]3 [EG] | %16
w: ||
w: ||
w: hope to meet you there, I|hope to meet you there— A|
w: ||
 [DF]>[EG] [FA]>[DF] [CE]2 [CA]2 | [EB]4 [EA]2 |] %18
w: ||
w: ||
w: crown of vic- tory wear— In|glo- ry.|
w: ||
V:2
 x2 | x8 | x6 E>E | x8 | x8 | x8 | x8 | x8 | x6 || x2 | x8 | x8 | x8 | x8 | x8 | x8 | x8 | x6 |] %18
V:3
 [A,,A,]2 | [A,,E,]>[A,,E,] [A,,E,]>[A,,E,] [A,,A,]2 [A,,E,]2 | [A,,A,]4 [A,,E,]2 [C,A,]>[C,A,] | %3
 [D,A,]2 [D,A,]2 [D,A,]2 [D,A,]2 | [A,,A,]6 [A,,A,]2 | %5
 [A,,E,]>[A,,E,] [A,,E,]>[A,,E,] [A,,A,]2 [A,,E,]2 | [A,,A,]4 [A,,E,]2 [C,A,]>[C,A,] | %7
 [D,A,]2 [D,A,]2 [E,A,]2 [E,G,]2 | [A,,A,]6 || [A,,C]>[A,,C] | [E,B,]2 [E,D]2 [E,D]2 [E,D]>[E,D] | %11
 [A,C]2 [A,E]2 [A,E]2 [A,E]>[A,E] | [E,E]2 [E,B,]2 [E,B,]2 [E,E]>[E,E] | %13
 [A,E]2 [A,C]2 !fermata![A,C]2 [E,B,]2 | A,>[A,B,] [A,C]>[A,B,] A,3 [E,D] | %15
 [A,,C]>[A,,D] [A,,E]>[A,,D] [A,,C]3 [C,A,] | [D,A,]>[D,A,] [D,A,]>[D,A,] [E,E]2 [E,E]2 | %17
 [E,E]4 [A,,A,C]2 |] %18
V:4
 x2 | x8 | x8 | x8 | x8 | x8 | x8 | x8 | x6 || x2 | x8 | x8 | x8 | x8 | A,3/2 x A,3 x5/2 | x8 | %16
 x8 | x6 |] %18

